symbolic/16x16/actions/window-pin.svg

<svg xmlns="http://www.w3.org/2000/svg" width="16" height="16" version="1.1">
 <defs>
  <style id="current-color-scheme" type="text/css">
   .ColorScheme-Text { color:#323a41; } .ColorScheme-Highlight { color:#4285f4; } .ColorScheme-NeutralText { color:#ff9800; } .ColorScheme-PositiveText { color:#4caf50; } .ColorScheme-NegativeText { color:#f44336; }
  </style>
 </defs>
 <path style="fill:currentColor" class="ColorScheme-Text" d="M 8.5254,0.13284 8.4961,0.16213 C 8.0959,0.56226 7.8721,1.0932 7.8691,1.6563 7.8663,2.1787 8.0531,2.672 8.3965,3.0566 L 5.0566,6.3965 C 4.672,6.0531 4.1787,5.8683 3.6562,5.8711 3.0932,5.8741 2.5622,6.0959 2.1621,6.4961 L 2.1328,6.5254 C 1.9575,6.7006 1.9554,6.9848 2.1289,7.1582 L 4.7187,9.7461 0.39257,14.074 0,16 1.9258,15.607 6.2539,11.281 8.8418,13.871 C 8.9285,13.958 9.044,14.001 9.1582,14 9.2724,13.999 9.3871,13.955 9.4746,13.867 L 9.5039,13.838 C 9.9041,13.438 10.126,12.907 10.129,12.344 10.132,11.821 9.9448,11.328 9.6016,10.943 L 12.943,7.6016 C 13.328,7.9448 13.821,8.1317 14.344,8.1289 14.907,8.1259 15.438,7.9041 15.838,7.5039 L 15.867,7.4746 C 15.955,7.3871 15.999,7.2724 16,7.1582 16.001,7.044 15.958,6.9285 15.871,6.8418 L 9.1582,0.12893 C 9.0715,0.04219 8.9561,0 8.8418,0 8.7275,0 8.613,0.04517 8.5254,0.13284 Z"/>
</svg>

<svg xmlns="http://www.w3.org/2000/svg" width="16" height="16"><defs><style id="current-color-scheme" type="text/css"></style></defs><path style="fill:currentColor;color:#323a41" d="m8.525.133-.029.03c-.4.4-.624.93-.627 1.493a2.073 2.073 0 0 0 .527 1.4l-3.34 3.34a2.117 2.117 0 0 0-2.895.1l-.028.03a.448.448 0 0 0-.004.632l2.59 2.588-4.326 4.328L0 16l1.926-.393 4.328-4.326 2.588 2.59a.45.45 0 0 0 .633-.004l.029-.029c.4-.4.622-.931.625-1.494a2.075 2.075 0 0 0-.527-1.401l3.341-3.341c.385.343.878.53 1.401.527a2.117 2.117 0 0 0 1.494-.625l.029-.03a.45.45 0 0 0 .004-.632L9.158.129a.446.446 0 0 0-.633.004z"/></svg>
